X: 3136
T: Beautiful Gortree
R: reel
M: 4/4
K: Emajor
|:E2GB ~c3B|g~f2e cBGF|E2GB cG (3GGG|G2eG F2GF|
E2GB ~g2bg|fegf|ecBe|~g2fe cBec|BEGF E4:|

